packages/katcn/src/icons/svg/horizontalAlign-solid.svg

<svg width="24" height="25" viewBox="0 0 24 25" fill="none" xmlns="http://www.w3.org/2000/svg">
<path d="M7.1 11.012H16.9C18.4 11.012 19.5 9.81201 19.5 8.41201V5.91201C19.5 4.41201 18.3 3.31201 16.9 3.31201H7.1C5.6 3.31201 4.5 4.51201 4.5 5.91201V8.41201C4.5 9.81201 5.6 11.012 7.1 11.012Z" fill="black"/>
<path d="M19.4 13.312H4.6C3.2 13.312 2 14.512 2 15.912V18.412C2 19.912 3.2 21.012 4.6 21.012H19.3C20.8 21.012 21.9 19.812 21.9 18.412V15.912C22 14.512 20.8 13.312 19.4 13.312Z" fill="black"/>
</svg>

<svg xmlns="http://www.w3.org/2000/svg" fill="none" viewBox="0 0 24 25"><path fill="#000" d="M7.1 11.012h9.8c1.5 0 2.6-1.2 2.6-2.6v-2.5c0-1.5-1.2-2.6-2.6-2.6H7.1c-1.5 0-2.6 1.2-2.6 2.6v2.5c0 1.4 1.1 2.6 2.6 2.6m12.3 2.3H4.6c-1.4 0-2.6 1.2-2.6 2.6v2.5c0 1.5 1.2 2.6 2.6 2.6h14.7c1.5 0 2.6-1.2 2.6-2.6v-2.5c.1-1.4-1.1-2.6-2.5-2.6"/></svg>
